X:1
T:Title
%%score { ( 1 4 ) | ( 2 3 ) }
L:1/8
M:4/4
K:G
V:1 treble nm="Grand Piano"
V:4 treble 
V:2 bass 
V:3 bass 
V:1
 z4 z2[Q:1/4=108] D2 | [B,G]3 [CA] [DB]2 [Ec]2 | [DB]4 [B,G]2 [B,G]2 | F3 G A2 [Ec]2 | %4
 [DB]4 G2 D2 | [B,G]3 [CA] [DB]2 [Ec]2 | [DB]4 [B,G]2 [DB]2 | A2 D2 B3 A | [B,G]6 [GB]2 | %9
 [Ac]3 [Bd] [ce]2 [ce]2 | [Bd]4 [GB]2 [GB]2 | [Ac]3 [Bd] [ce]2 [Ac]2 | [GB]6 z2 | %13
 [B,G]3 [CA] [DB]2 [Ec]2 | [DB]4 [B,G]2 [DF]2 | [CE]2 [Ec]2 [DB]2 [CA]2 |[M:3/4] [G,B,G]6 | %17
[M:1/4] B2 |[M:4/4] d6 z2 | c6 z2 | F3 G A2 [DEc]2 | [DB]4 G2 B2 | d6 z2 | c6 z2 | %24
 [Fd]3 [Ec] [DB]2 [CDA]2 |[M:3/4] [B,DG]6 |] %26
V:2
 z4 z2 D,2 | [G,,G,]3 [G,,G,] [G,,G,]2 [G,,G,]2 | [G,,G,]4 [G,,G,]2 [G,,G,]2 | %3
 [D,A,]3 [D,G,B,] [D,F,C]2 [D,F,]2 | z4 B,2 D,2 | [G,,G,]3 [G,,G,] [G,,G,]2 [G,,G,]2 | %6
 [G,,G,]4 [G,,G,]2 [G,,G,]2 | [D,F,C]2 [D,F,C]2 [D,F,D]3 [D,F,C] | [G,,G,]6 [G,D]2 | %9
 [C,C]3 [C,C] [C,C]2 [G,C]2 | [G,D]4 [G,D]2 [G,D]2 | [C,C]3 [C,C] [C,C]2 [D,F,]2 | %12
 [G,,G,]6 [D,D]2 | [G,,G,]3 [G,,G,] [G,,G,]2 [G,,G,]2 | [G,,G,]4 [G,,G,]2 [B,,G,]2 | %15
 [C,G,]2 [C,G,]2 [D,G,]2 [D,F,]2 |[M:3/4] G,,6 |[M:1/4][K:treble] G2 | %18
[M:4/4] B6[K:bass][K:treble] z2 | A6[K:bass] z2 | [D,A,D]3 [D,B,D] [D,CD]2 D,2 | %21
 z4 B,2[K:treble] G2 | B6[K:bass][K:treble] z2 | A6[K:bass] z2 | [D,A,]3 [D,A,] D,2 D,2 | %25
[M:3/4] G,,6 |] %26
V:3
 x8 | x8 | x8 | x8 | [G,,G,]6 z2 | x8 | x8 | x8 | x8 | x8 | x8 | x8 | x8 | x8 | x8 | x8 | %16
[M:3/4] x6 |[M:1/4][K:treble] x2 |[M:4/4] z2[K:bass] G,,2 G,,2[K:treble] c2 | %19
 z2[K:bass] D,2 D,2 [D,A,D]2 | x8 | G,6[K:treble] z2 | z2[K:bass] G,,2 G,,2[K:treble] c2 | %23
 z2[K:bass] D,2 D,2 [A,,A,]2 | x8 |[M:3/4] x6 |] %26
V:4
 x8 | x8 | x8 | x8 | x8 | x8 | x8 | x8 | x8 | x8 | x8 | x8 | x8 | x8 | x8 | x8 |[M:3/4] x6 | %17
[M:1/4] x2 |[M:4/4] z2 G,2 G,2 e2 | z2 A,2 A,2 F2 | x8 | x8 | z2 G,2 G,2 e2 | z2 A,2 A,2 [Ge]2 | %24
 x8 |[M:3/4] x6 |] %26

